X: 38594
T: Stone Of Destiny
R: reel
M: 4/4
K: Gmajor
A|:BddB G2AB|Bddg edBA|BddB G2Bd|gedB BAAg|
edBA BGGA|~B2AG EGGE|DG ~G2 DGBd|1 dBAd BGGA:|2 dBAB G3||
g|:edBA BGGA|BGAG EGGA|edBA BGGA|BddB BAAg|
edBA BGGA|~B2AG EGGE|DG ~G2 DGBd|1 dBAd BGGA:|2 dBAB G3||

